X:1
T:Title
%%score { ( 1 3 ) | ( 2 4 ) }
L:1/8
M:4/4
K:C
V:1 treble nm="Grand Piano"
V:3 treble 
V:2 bass 
V:4 bass 
V:1
 z4 z2[Q:1/4=100] [Ec]2 | [DG]2 [CA]2 [DG]2 [B,F]2 | [CE]6 [CG]2 | [CA]2 D2 E2 [B,D]2 | C8 | %5
 E2 C2 [DG]2 [B,G]2 | [EA]2 [Dc]2 [DB]4 | z2 B2 z4 | z2 B2 z4 | [Gd]2 [Gd]2 [Ge]2 [Gc]2 | %10
 [FB]2 [Ec]2 [B,Gd]4 | [CGc]2 [CFA]2 [CEG]2 .[CDF]2 |[M:7/4] [CE]2 z2 z2 z2 z2 z4 |[M:4/4] C4 C4 |] %14
V:2
 z4 z2 [C,G,]2 | [B,,G,]2 [A,,E,]2 [B,,G,]2 [G,,G,]2 | [C,G,]6 [C,E,]2 | %3
 [F,,F,]2 [F,A,C]2 [G,C]2 [G,,F,]2 | [C,E,]8 | [C,G,C]2 [E,G,]2 [B,,G,]2 [E,G,]2 | %6
 [C,G,]2 [D,^F,]2 [G,,G,]4 | [D,^F,D]2 [G,D]2 [E,G,E]2 [C,C]2 | [F,A,F]2 .[G,D]2 [C,G,]4 | %9
 [B,,G,]2 [G,,B,]2 [C,C]2 [E,C]2 | [D,G,]2 [C,G,]2 G,,4 | E,2 F,2 C,2 z B, | %12
[M:7/4] E,F, [G,B,]2 C,2 z2 z2 z4 |[M:4/4] [F,A,]4 [C,E,G,]4 |] %14
V:3
 x8 | x8 | x8 | x8 | x8 | x8 | x8 | A2 z F, c2 [Ge]2 | d2 z F [Ec]4 | x8 | x8 | x8 | %12
[M:7/4] G,A, D2 C2 z2 z2 z4 |[M:4/4] x8 |] %14
V:4
 x8 | x8 | x8 | x8 | x8 | x8 | x8 | x8 | x8 | x8 | x8 | z4 z2 D,2 |[M:7/4] x14 |[M:4/4] x8 |] %14

